!!!COM: Music21
!!!OTL: Marcha procesional
!!!OMV: pezas_marchas_marcha-procesional-15_marcha-procesional-partitura.musicxml
**kern
*I"Bagpipes
*I'Bag
*clefG^2
*k[]
*M6/8
=1
!LO:TX:a:t=Andante
*MM105
!LO:TX:a:t=[quarter]=105
2r
8r
8gg
=||
4ccc^
8gg
4ee
8gg
=
4ccc^
8gg
4ee
8ee
=
8ffL
8ff
8ffJ
8ffL
8ee
8ddJ
=
4gg
8ee
4cc
8gg
=
4ccc^
8gg
4ee
8gg
=
4ccc^
8gg
4ee
8gg
!!linebreak:original
=
8ggL
8aa
8ggJ
8ffL
8ee
8ddJ
=
[4.cc
4cc]
8gg
=||
4ccc^
8gg
4ee
8gg
=
4ccc^
8gg
4ee
8ee
=
8ffL
8ff
8ffJ
8ffL
8ee
8ddJ
=
4gg
8ee
4cc
8gg
=
4ccc^
8gg
4ee
8gg
!!linebreak:original
=
4ccc^
8gg
4ee
8gg
!!linebreak:original
=
8ggL
8aa
8ggJ
8ffL
8ee
8ddJ
=
[4.cc
4cc]
8cc
=||
4ee^
8cc
4ee^
8cc
=
4dd^
8dd
4dd^
8dd
=
8ffL
8ff
8ffJ
8ffL
8ee
8ddJ
!!linebreak:original
=
4gg
8ee
4cc
8cc
=
4ee^
8cc
4ee^
8cc
=
4dd
8dd
4dd
8gg
=
8ggL
8aa
8ggJ
8ffL
8ee
8ddJ
=
[4.cc
4cc]
8cc
=||
4ee^
8cc
4ee^
8cc
!!linebreak:original
=
4dd^
8dd
4dd^
8dd
=
8ffL
8ff
8ffJ
8ffL
8ee
8ddJ
!!linebreak:original
=
4gg
8ee
4cc
8cc
=
4ee^
8cc
4ee^
8cc
=
4dd
8dd
4dd
8gg
=
8ggL
8aa
8ggJ
8ffL
8ee
8ddJ
=
[4.cc
4cc]
8gg
==
*-
